img/nav-tiles-icon.svg

<svg width="16" height="16" viewBox="0 0 16 16" fill="none" xmlns="http://www.w3.org/2000/svg">
<path fill-rule="evenodd" clip-rule="evenodd" d="M14 0H10.8C9.69543 0 8.8 0.895431 8.8 2V5.2C8.8 6.30457 9.69543 7.2 10.8 7.2H14C15.1046 7.2 16 6.30457 16 5.2V2C16 0.89543 15.1046 0 14 0ZM10.4 2C10.4 1.77909 10.5791 1.6 10.8 1.6H14C14.2209 1.6 14.4 1.77909 14.4 2V5.2C14.4 5.42091 14.2209 5.6 14 5.6H10.8C10.5791 5.6 10.4 5.42091 10.4 5.2V2ZM2.18579 0.751472L0.751472 2.18579C-0.0295749 2.96683 -0.0295788 4.23316 0.751472 5.01421L2.18579 6.44853C2.96683 7.22957 4.23316 7.22958 5.01421 6.44853L6.44853 5.01421C7.22957 4.23317 7.22958 2.96684 6.44853 2.18579L5.01421 0.751472C4.23317 -0.0295749 2.96684 -0.0295788 2.18579 0.751472ZM1.88284 3.88284C1.72663 3.72663 1.72663 3.47337 1.88284 3.31716L3.31716 1.88284C3.47337 1.72663 3.72663 1.72663 3.88284 1.88284L5.31716 3.31716C5.47337 3.47337 5.47337 3.72663 5.31716 3.88284L3.88284 5.31716C3.72663 5.47337 3.47337 5.47337 3.31716 5.31716L1.88284 3.88284ZM5.2 8.8H2C0.89543 8.8 0 9.69543 0 10.8V14C0 15.1046 0.895431 16 2 16H5.2C6.30457 16 7.2 15.1046 7.2 14V10.8C7.2 9.69543 6.30457 8.8 5.2 8.8ZM1.6 10.8C1.6 10.5791 1.77909 10.4 2 10.4H5.2C5.42091 10.4 5.6 10.5791 5.6 10.8V14C5.6 14.2209 5.42091 14.4 5.2 14.4H2C1.77909 14.4 1.6 14.2209 1.6 14V10.8ZM12.4 16C10.4118 16 8.8 14.3882 8.8 12.4C8.8 10.4118 10.4118 8.8 12.4 8.8C14.3882 8.8 16 10.4118 16 12.4C16 14.3882 14.3882 16 12.4 16ZM12.4 10.4C11.2954 10.4 10.4 11.2954 10.4 12.4C10.4 13.5046 11.2954 14.4 12.4 14.4C13.5046 14.4 14.4 13.5046 14.4 12.4C14.4 11.2954 13.5046 10.4 12.4 10.4Z" fill="#F58020"/>
</svg>

<svg width="16" height="16" fill="none" xmlns="http://www.w3.org/2000/svg"><path fill-rule="evenodd" clip-rule="evenodd" d="M14 0h-3.2a2 2 0 0 0-2 2v3.2a2 2 0 0 0 2 2H14a2 2 0 0 0 2-2V2a2 2 0 0 0-2-2zm-3.6 2c0-.22.18-.4.4-.4H14c.22 0 .4.18.4.4v3.2a.4.4 0 0 1-.4.4h-3.2a.4.4 0 0 1-.4-.4V2zM2.186.751L.75 2.186a2 2 0 0 0 0 2.828L2.186 6.45a2 2 0 0 0 2.828 0L6.45 5.014a2 2 0 0 0 0-2.828L5.014.75a2 2 0 0 0-2.828 0zm-.303 3.132a.4.4 0 0 1 0-.566l1.434-1.434a.4.4 0 0 1 .566 0l1.434 1.434a.4.4 0 0 1 0 .566L3.883 5.317a.4.4 0 0 1-.566 0L1.883 3.883zM5.2 8.8H2a2 2 0 0 0-2 2V14a2 2 0 0 0 2 2h3.2a2 2 0 0 0 2-2v-3.2a2 2 0 0 0-2-2zm-3.6 2c0-.22.18-.4.4-.4h3.2c.22 0 .4.18.4.4V14a.4.4 0 0 1-.4.4H2a.4.4 0 0 1-.4-.4v-3.2zM12.4 16a3.6 3.6 0 1 1 0-7.2 3.6 3.6 0 0 1 0 7.2zm0-5.6a2 2 0 1 0 0 4 2 2 0 0 0 0-4z" fill="#F58020"/></svg>
